static/assets/images/networks/near.svg

<svg width="256" height="256" viewBox="0 0 256 256" fill="none" xmlns="http://www.w3.org/2000/svg">
<path d="M128 256C198.692 256 256 198.692 256 128C256 57.3075 198.692 0 128 0C57.3075 0 0 57.3075 0 128C0 198.692 57.3075 256 128 256Z" fill="white"/>
<path d="M184.316 57C179.039 57 174.139 59.7267 171.375 64.2092L141.589 108.278C140.618 109.73 141.012 111.688 142.469 112.655C143.65 113.44 145.213 113.343 146.29 112.421L175.609 87.0791C176.096 86.642 176.847 86.6865 177.285 87.1718C177.484 87.3943 177.59 87.6817 177.59 87.977V167.319C177.59 167.974 177.058 168.5 176.4 168.5C176.047 168.5 175.714 168.347 175.491 168.076L86.8632 62.3564C83.9768 58.9621 79.7385 57.004 75.2767 57H72.1793C63.796 57 57 63.7723 57 72.1264V183.873C57 192.228 63.796 199 72.1793 199C77.457 199 82.3572 196.274 85.1217 191.791L114.908 147.722C115.878 146.27 115.484 144.312 114.027 143.345C112.845 142.56 111.283 142.658 110.207 143.58L80.8873 168.921C80.4004 169.358 79.649 169.313 79.2107 168.828C79.0118 168.605 78.9062 168.318 78.9102 168.023V88.6608C78.9102 88.0054 79.442 87.4795 80.0999 87.4795C80.4489 87.4795 80.786 87.6332 81.0092 87.9042L169.625 193.644C172.511 197.038 176.749 198.996 181.212 199H184.308C192.692 199.004 199.493 192.236 199.5 183.882V72.1264C199.5 63.7723 192.7 57 184.316 57Z" fill="black"/>
</svg>

<svg xmlns="http://www.w3.org/2000/svg" fill="none" viewBox="0 0 256 256"><path fill="#fff" d="M128 256c70.692 0 128-57.308 128-128S198.692 0 128 0 0 57.308 0 128s57.308 128 128 128"/><path fill="#000" d="M184.316 57a15.2 15.2 0 0 0-12.941 7.21l-29.786 44.068a3.15 3.15 0 0 0 .88 4.377 3.18 3.18 0 0 0 3.821-.234l29.319-25.342a1.19 1.19 0 0 1 1.981.898v79.342c0 .655-.532 1.181-1.19 1.181-.353 0-.686-.153-.909-.424L86.863 62.356A15.23 15.23 0 0 0 75.277 57h-3.098C63.796 57 57 63.772 57 72.126v111.747C57 192.228 63.796 199 72.18 199a15.2 15.2 0 0 0 12.942-7.209l29.786-44.069a3.15 3.15 0 0 0-.881-4.377 3.175 3.175 0 0 0-3.82.235l-29.32 25.341a1.184 1.184 0 0 1-1.977-.898V88.661c0-.656.532-1.181 1.19-1.181.349 0 .686.153.91.424l88.615 105.74A15.23 15.23 0 0 0 181.212 199h3.096c8.384.004 15.185-6.764 15.192-15.118V72.126c0-8.354-6.8-15.126-15.184-15.126"/></svg>
